icons/mobile/48/svg/private-mode-circle-fill-48.svg

<svg width="48" height="48" viewBox="0 0 48 48" fill="none" xmlns="http://www.w3.org/2000/svg">
<circle cx="24" cy="24" r="20" fill="white"/>
<path d="M33.6501 25.2661C32.7023 25.2661 32.219 24.5791 32.0381 23.6456C31.7762 22.2932 31.321 21.0147 30.7816 19.7393C30.5041 19.0831 29.9958 17.5766 29.1571 17.4041C28.203 17.2069 27.3611 17.7214 26.2729 19.9026C25.378 21.7017 24.7731 22.9555 24.7731 22.9555V22.9679L24.1589 22.9617C24.1589 22.9617 24.1527 22.9617 24.1433 22.9617C24.1433 22.9617 24.1059 22.9617 24.0591 22.9617C24.0467 22.9617 24.0373 22.9617 24.0248 22.9617C24.0155 22.9617 24.0061 22.9617 23.9968 22.9617C23.9874 22.9617 23.9781 22.9617 23.9687 22.9617C23.9562 22.9617 23.9438 22.9617 23.9344 22.9617C23.8876 22.9617 23.8502 22.9617 23.8502 22.9617L23.8346 22.9648L23.2204 22.9709V22.9586C23.2204 22.9586 22.6155 21.7017 21.7206 19.9056C20.6355 17.7214 19.7906 17.21 18.8365 17.4072C17.9977 17.5797 17.4895 19.0892 17.212 19.7424C16.6726 21.0178 16.2173 22.2932 15.9554 23.6487C15.7746 24.5822 15.2944 25.2661 14.3434 25.2692C14.1002 25.2692 13.9381 25.5218 14.0222 25.7467C14.2249 26.2889 14.8485 26.6339 15.3692 26.8342C15.1354 26.8958 14.4369 26.7541 14.4058 27.1053C14.3808 27.3918 15.1104 27.6814 15.3069 27.7738C17.1434 28.658 18.8333 30.2445 21.0066 29.9642C21.9513 29.841 22.6404 29.1755 23.4137 28.7627C23.7785 28.5686 24.2213 28.5686 24.5861 28.7627C25.3593 29.1755 26.0484 29.841 26.9932 29.9642C29.1664 30.2445 30.8564 28.658 32.6929 27.7738C32.8893 27.6783 33.6158 27.3918 33.594 27.1053C33.5659 26.7572 32.8675 26.8958 32.6305 26.8342C33.1512 26.6339 33.7749 26.2889 33.9775 25.7467C34.0617 25.5218 33.8965 25.2722 33.6564 25.2692L33.6501 25.2661ZM18.2565 25.7313C18.2284 25.4386 18.8645 25.2137 19.0952 25.1767C20.4672 24.9488 22.285 25.4848 22.7277 26.905C21.4681 28.0541 18.8739 27.2624 18.2565 25.7344V25.7313ZM25.2627 26.905C25.7054 25.4848 27.5232 24.9488 28.8952 25.1767C29.1259 25.2137 29.762 25.4386 29.7339 25.7313C29.1134 27.2593 26.5224 28.0541 25.2627 26.9019V26.905Z" fill="black"/>
</svg>

<!-- This Source Code Form is subject to the terms of the Mozilla Public
   - License, v. 2.0. If a copy of the MPL was not distributed with this
   - file, You can obtain one at http://mozilla.org/MPL/2.0/. -->
<svg xmlns="http://www.w3.org/2000/svg" width="48" height="48" fill="none" viewBox="0 0 48 48">
    <circle cx="24" cy="24" r="20" fill="#fff" />
    <path fill="#000" d="M33.65 25.266c-.948 0-1.431-.687-1.612-1.62-.262-1.353-.717-2.631-1.256-3.907-.278-.656-.786-2.162-1.625-2.335-.954-.197-1.796.317-2.884 2.499-.895 1.799-1.5 3.053-1.5 3.053v.012l-.614-.006h-.309l-.015.003-.615.006v-.012s-.604-1.257-1.5-3.053c-1.084-2.185-1.93-2.696-2.883-2.499-.84.173-1.348 1.682-1.625 2.335-.54 1.276-.995 2.551-1.257 3.907-.18.933-.66 1.617-1.612 1.62-.243 0-.405.253-.32.478.202.542.825.887 1.346 1.087-.234.062-.932-.08-.963.271-.025.287.704.576.9.669 1.837.884 3.527 2.47 5.7 2.19.945-.123 1.634-.788 2.408-1.201a1.25 1.25 0 0 1 1.172 0c.773.412 1.462 1.078 2.407 1.201 2.173.28 3.863-1.306 5.7-2.19.196-.096.923-.382.901-.669-.028-.348-.727-.21-.964-.27.521-.201 1.145-.546 1.347-1.088a.355.355 0 0 0-.32-.478zm-15.393.465c-.029-.292.607-.517.838-.554 1.372-.228 3.19.308 3.633 1.728-1.26 1.15-3.854.357-4.472-1.17zm7.006 1.174c.442-1.42 2.26-1.956 3.632-1.728.23.037.867.262.839.554-.62 1.528-3.212 2.323-4.471 1.17z" />
</svg>
